X: 1039
T: The Hobby-horse Dance.
%R: jig
B: Henry Playford "Apollo's Banquet", London 1687 (5th Edition)
F: https://archive.org/details/apollosbanquetco01rugg
Z: 2017 John Chambers <jc:trillian.mit.edu>
M: 6/4
L: 1/4
K: D
% - - - - - - - - - -
A |\
d>cB A>GF | G2G G>AB |\
A2A A2d | e2d c>Bc |\
d2D D2D | D2D D2D |\
D3- D2 :: A | d>ef f>ef |
g2g g3 | f2f f3 |\
e2e e2A | d>ef a>gf |\
g2f f3 | e2e e>dc |\
d2D D2D | D2D D2D | D3- D2 |]
% - - - - - - - - - -

%%sep 1 1 500
%%sep 1 1 500

